public/img/moods/excited.svg

<?xml version="1.0" encoding="UTF-8" standalone="no"?>
<!-- Generator: Adobe Illustrator 19.0.0, SVG Export Plug-In . SVG Version: 6.00 Build 0)  -->
<svg id="Capa_1" style="enable-background:new 0 0 33 33" xmlns="http://www.w3.org/2000/svg" xml:space="preserve" viewBox="0 0 33 33" height="512px" width="512px" version="1.1" y="0px" x="0px" xmlns:xlink="http://www.w3.org/1999/xlink">
<g fill="#5da0bf">
		<path d="m16.5 33c-9.098 0-16.5-7.402-16.5-16.5s7.402-16.5 16.5-16.5 16.5 7.402 16.5 16.5-7.402 16.5-16.5 16.5zm0-32c-8.547 0-15.5 6.953-15.5 15.5s6.953 15.5 15.5 15.5 15.5-6.953 15.5-15.5-6.953-15.5-15.5-15.5z"/>
		<path d="m16.5 26.277c-4.288 0-7.777-3.489-7.777-7.777 0-0.276 0.224-0.5 0.5-0.5h14.555c0.276 0 0.5 0.224 0.5 0.5-0.001 4.288-3.49 7.777-7.778 7.777zm-6.759-7.277c0.257 3.505 3.189 6.277 6.759 6.277s6.502-2.772 6.759-6.277h-13.518z"/>
		<circle cy="11.93" cx="11.703" r="2.125"/>
		<circle cy="11.93" cx="21.828" r="2.125"/>
		<path d="m14.013 25.488c-0.276 0-0.5-0.224-0.5-0.5v-6.488c0-0.276 0.224-0.5 0.5-0.5s0.5 0.224 0.5 0.5v6.488c0 0.277-0.224 0.5-0.5 0.5z"/>
		<path d="m18.987 25.488c-0.276 0-0.5-0.224-0.5-0.5v-6.488c0-0.276 0.224-0.5 0.5-0.5s0.5 0.224 0.5 0.5v6.488c0 0.277-0.223 0.5-0.5 0.5z"/>
</g>
</svg>

<?xml version="1.0" encoding="iso-8859-1"?>
<!-- Generator: Adobe Illustrator 19.0.0, SVG Export Plug-In . SVG Version: 6.00 Build 0)  -->
<svg xmlns="http://www.w3.org/2000/svg" xmlns:xlink="http://www.w3.org/1999/xlink" version="1.1" id="Capa_1" x="0px" y="0px" viewBox="0 0 33 33" style="enable-background:new 0 0 33 33;" xml:space="preserve" width="512px" height="512px">
<g>
	<g>
		<path d="M16.5,33C7.402,33,0,25.598,0,16.5S7.402,0,16.5,0S33,7.402,33,16.5S25.598,33,16.5,33z M16.5,1C7.953,1,1,7.953,1,16.5    S7.953,32,16.5,32S32,25.047,32,16.5S25.047,1,16.5,1z" fill="#5da0bf"/>
		<path d="M16.5,26.277c-4.288,0-7.777-3.489-7.777-7.777c0-0.276,0.224-0.5,0.5-0.5h14.555c0.276,0,0.5,0.224,0.5,0.5    C24.277,22.788,20.788,26.277,16.5,26.277z M9.741,19c0.257,3.505,3.189,6.277,6.759,6.277s6.502-2.772,6.759-6.277H9.741z" fill="#5da0bf"/>
		<circle cx="11.703" cy="11.93" r="2.125" fill="#5da0bf"/>
		<circle cx="21.828" cy="11.93" r="2.125" fill="#5da0bf"/>
	</g>
	<g>
		<path d="M14.013,25.488c-0.276,0-0.5-0.224-0.5-0.5V18.5c0-0.276,0.224-0.5,0.5-0.5s0.5,0.224,0.5,0.5v6.488    C14.513,25.265,14.289,25.488,14.013,25.488z" fill="#5da0bf"/>
		<path d="M18.987,25.488c-0.276,0-0.5-0.224-0.5-0.5V18.5c0-0.276,0.224-0.5,0.5-0.5s0.5,0.224,0.5,0.5v6.488    C19.487,25.265,19.264,25.488,18.987,25.488z" fill="#5da0bf"/>
	</g>
</g>
<g>
</g>
<g>
</g>
<g>
</g>
<g>
</g>
<g>
</g>
<g>
</g>
<g>
</g>
<g>
</g>
<g>
</g>
<g>
</g>
<g>
</g>
<g>
</g>
<g>
</g>
<g>
</g>
<g>
</g>
</svg>
